symbols/web/assistant_direction/materialsymbolsoutlined/assistant_direction_wght700gradN25fill1_40px.svg

<svg xmlns="http://www.w3.org/2000/svg" height="40" width="40"><path d="M18.875 31.958q.458.459 1.063.459.604 0 1.062-.459l11.083-10.916q.417-.459.417-1.104 0-.646-.417-1.105L21 7.917q-.458-.417-1.062-.417-.605 0-1.063.417L7.958 18.833q-.458.459-.458 1.105 0 .645.458 1.104ZM13.5 24.583v-6.25q0-.541.438-.979.437-.437.979-.437h8.125l-2.25-2.25 1.875-1.875 5.416 5.375-5.541 5.583-1.875-1.833L23 19.542h-6.875v5.041ZM20 37.542q-3.667 0-6.854-1.375-3.188-1.375-5.563-3.75-2.375-2.375-3.75-5.563Q2.458 23.667 2.458 20q0-3.667 1.375-6.875t3.75-5.583q2.375-2.375 5.563-3.75Q16.333 2.417 20 2.417q3.667 0 6.875 1.375t5.583 3.75q2.375 2.375 3.75 5.583T37.583 20q0 3.667-1.375 6.854-1.375 3.188-3.75 5.563-2.375 2.375-5.583 3.75T20 37.542Z"/></svg>

<svg xmlns="http://www.w3.org/2000/svg" height="40" width="40"><path d="M20.042 39.083Q16.125 39.083 12.625 37.583Q9.125 36.083 6.521 33.479Q3.917 30.875 2.417 27.375Q0.917 23.875 0.917 19.958Q0.917 16 2.417 12.521Q3.917 9.042 6.521 6.458Q9.125 3.875 12.604 2.354Q16.083 0.833 20.042 0.833Q24 0.833 27.458 2.354Q30.917 3.875 33.521 6.479Q36.125 9.083 37.646 12.542Q39.167 16 39.167 19.958Q39.167 23.917 37.646 27.396Q36.125 30.875 33.521 33.479Q30.917 36.083 27.458 37.583Q24 39.083 20.042 39.083ZM18.875 31.958Q19.333 32.417 19.938 32.417Q20.542 32.417 21 31.958L32.083 21.042Q32.5 20.583 32.5 19.938Q32.5 19.292 32.083 18.833L21 7.917Q20.542 7.5 19.938 7.5Q19.333 7.5 18.875 7.917L7.958 18.833Q7.5 19.292 7.5 19.938Q7.5 20.583 7.958 21.042ZM13.5 24.583V18.333Q13.5 17.792 13.938 17.354Q14.375 16.917 14.917 16.917H23.042L20.792 14.667L22.667 12.792L28.083 18.167L22.542 23.75L20.667 21.917L23 19.542H16.125V24.583Z"/></svg>
